X:1
T:Rondo a Capriccio Rage over a lost Penny Beethoven op.129 
T:Ludwig van Beethoven 
%%score { ( 1 3 ) | ( 2 4 ) }
L:1/8
Q:1/4=174
M:2/4
K:G
V:1 treble nm="Piano"
V:3 treble 
V:2 bass 
V:4 bass 
V:1
!p!"^Allegro vivace" (B2 .d).d | .g.g !>!b2 | (d'/c'/d'/c'/ .a) z | (d'/c'/d'/c'/ .a) z | %4
 (B2 .d).d | .g.g !>!b2 | (d'/c'/d'/c'/ .a)(a/b/ | g2) z2 | (b/a/g/f/ e/f/g/a/ | .b).b !>!e'2 | %10
 (e'/^d'/e'/d'/ .b) z | (e'/^d'/e'/d'/ .b) z | (b/a/g/f/ e/f/g/a/ | .b).b !>!e'2 | !trill(!T^c'4 | %15
 .d'2 .d2 |!f! (B2 .d).d | .g.g !>!b2 | (d'/=c'/d'/c'/ !>!a2) | (d'/c'/d'/c'/ !>!a2) | (B2 .d).d | %21
 .g.g b2 | (d'/c'/d'/c'/ .a)(a/b/ | g2) z2 ||!ff! (b/a/g/f/ e/f/g/e/ | ^d/e/f/d/ B/^c/d/B/ | %26
 G/A/B/G/ E/F/G/E/ | ^D/E/F/D/ B,/^C/D/B,/ |[K:bass] G,/A,/B,/G,/ E,/F,/G,/E,/ | %29
 ^C,/=D,/E,/F,/ G,/A,/B,/^C/ |[K:treble] D/E/F/G/ A/B/=c/^c/ | d/e/f/g/ a/b/=c'/a/ | %32
!p! ([Bb]2) .d).d | .g.g b2 | (d'/c'/d'/c'/ .a) z | (d'/c'/d'/c'/ .a) z | (B2 .d).d | .g.g !>!b2 | %38
 (d'/c'/d'/c'/ .a)(a/b/ | g2) z2 | (b/a/g/f/ e/f/g/a/ | .b).b !>!e'2 | (e'/^d'/e'/d'/ .b) z | %43
 (e'/^d'/e'/d'/ .b) z | (b/a/g/f/ e/f/g/a/ | .b).b !>!e'2 | ^c'4 | .d'2 .d2 |!f! (B2 .d).d | %49
 .g.g !>!b2 | (d'/=c'/d'/c'/ !>!a2) | (d'/c'/d'/c'/ !>!a2) | (B2 .d).d | .g.g b2 | %54
 (d'/c'/d'/c'/ .a)(a/b/ | g2) z!f! d |:[K:Bb] (b/d'/g/b/ d/g/B/d/ | e/g/c/e/ G/c/E/G/) | %58
 (a/c'/f/a/ c/f/A/c/ | d/f/B/d/ F/B/D/F/) | (f'/d'/b/d'/ f/b/d/f/ | c/e/G/c/ E/G/C/E/ | %62
 D/F/B,/D/ C/E/A,/C/ |1 B,2) z d :|2 (B,2 z) .f |:!f! (f'/d'/b/d'/ f/b/d/f/ | %66
 =B/d/F/B/ D/F/=B,/D/) | (e'/c'/g/c'/ e/g/d/g/ | ^c/=e/G/c/ =E/A/^C/E/ | (D/)^F/A/F/ d/A/^f/d/ | %70
 g/d/_B/d/ G/B/D/G/ | _E/G/C/E/ A,/C/^F,/A,/ |1 G,2) z =f :|2 (G,/D/B,/D/ .G,) z || %74
!p! .[G,B,].[G,B,].[G,B,].[G,B,] | .[G,B,].[G,B,].[G,B,].[G,B,] | .[_A,B,].[A,B,].[A,B,].[A,B,] | %77
 .[_A,B,].[A,B,].[A,B,].[A,B,] | (E2 .G).G | .B.B e2 | (d/^c/d/c/ g2) | %81
[Q:1/4=169]"^pochiss. rit." (d/=c/d/c/ =a2) ||[K:G][Q:1/4=174]"^a tempo"!p! (B2 .d).d | %83
 .g.g !>!b2 | (d'/c'/d'/c'/ .a) z | (d'/c'/d'/c'/ .a) z |{^A} B2{^c} .d.d |{^f} .g.g{^a} b2 | %88
 (d'/=c'/d'/c'/ .a)(a/b/ | g2) z2 | (b/a/g/f/ e/f/g/a/ | .b).b !>!e'2 | (e'/^d'/e'/d'/ .b) z | %93
 (e'/^d'/e'/d'/ .b) z | (b/a/g/f/ e/f/g/a/ | .b).b !>!e'2 | !trill(!T^c'4 | .d'2 .d2 | %98
!f! (^A/B/A/B/ ^c/d/c/d/ | f/g/f/g/ ^a/b/a/b/) | (d'/^c'/=c'/b/ .=a) z | (d'/^c'/=c'/b/ .=a) z | %102
 (^A/B/).B, (^c/d/).D | (f/g/).G (^a/b/).B | (d'/^c'/=c'/b/ =a/b/c'/a/ | g2) z2 |: %106
[K:E]!f! [egbe']2 [Begb]2 | [GBeg]2 z (e | .[Bd]).[Be].[Bf].[Bg] | .[Ba].[Bb].[cc'].[dd'] | %110
 [egbe']2 [Begb]2 | [GBeg]2 z ([GB] | .[FB]).[GB].[FB].[E^A] | [DB]2 z ::!p! .B | %115
 .[B=a].[Bg].[Bf].[Be] | .[Bd].[Bc].B.[AB] | .[GB].[FB].[EB].[DB] | .[EB].[DB].[EB].[GB] | %119
 .[Ba].[Bg].[Bf].[Be] | .[Bd].[Bc].B.[AB] | .[GB].[FA].[EG].[DF] | E2 z :|!f! B | [Begb]2 [GBeg]2 | %125
 [EGBe]2 z!p! ([EG] | .[EA]).[EG].[EA].[EB] |[Q:1/4=168]"^poco rit." .[E=c].[EB].[Ec].[=DF] | %128
[Q:1/4=163]"^163" .[=D=G].[DF].[DG].[DA] ||[K:G][Q:1/4=174]"^a tempo"!f! (B2 .d).d | .g.g b2 | %131
 (d'/c'/d'/c'/ .a) z | (d'/c'/d'/c'/ .a) z | (B2 .d).d | .g.g b2 | (d'/c'/d'/c'/ .a)(a/b/ | %136
 g2) z2 |!mf! (b/a/g/f/ e/f/g/a/ | .b).b !>!e'2 | (e'/^d'/e'/d'/ .b) z | (e'/^d'/e'/d'/ .b) z | %141
 (b/a/g/f/ e/f/g/a/ | .b).b !>!e'2 | !trill(!T^c'4 |!<(! .d'2!<)! .d2 |!f! (B2 .d).d | .g.g b2 | %147
 (d'/=c'/d'/c'/ .a) z | (d'/c'/d'/c'/ .a) z | (B2 .d).d | .g.g b2 | (d'/c'/d'/c'/ .a)(a/b/ | %152
 g2) z!p! G | (d/c/d/c/ A2) | (c/B/c/B/ G2) | (B/A/B/A/ F2) | (A/G/A/G/ d2) | (d/c/d/c/ A2) | %158
 (c/_B/c/B/ G2) | (g/^c/g/c/ G2) | (g/^c/g/c/ G2) | (f/d/f/d/ A2) | (f/d/f/d/ A2) | %163
 (g/_d/g/d/ G2) | (g/_d/g/d/ G2) |!pp! (=c2 ._e).e | ._a.a c'2 | (_e'/_d'/e'/d'/ _b2) | %168
 (_e'/_d'/e'/d'/ _b2) | (c2 ._e).e | ._a.a c'2 | (_e'/_d'/e'/d'/ ._b)(b/c'/ | ._a) z z2 | %173
!mf! .[_Ac].[Ac].[Ac].[Ac] | .[_Ac].[Ac].[Ac].[Ac] | .[_Bc].[Bc].[Bc].[Bc] | %176
 .[_Bc].[Bc].[Bc].[Bc] | .[_Ac].[Ac].[Ac].[Ac] | .[_Ac].[Ac].[Ac].[Ac] | .[_A_B].[AB].[AB].[AB] | %180
 .[G_B].[GB].[GB].[GB] | (c2 ._e).e | ._a.a c'2 | (_e'/_d'/e'/d'/ _b2) | (_e'/_d'/e'/d'/ _b2) | %185
!f! z/ (c'/_a/_e/ c/a/e/c/ | _A/c/A/_E/ C/A/E/C/) | z/ (G/c/=e/ g/c/e/g/ | %188
 c'/=e/g/c'/ =e'/g/c'/e'/) | z/ (=f'/c'/_a/ =f/c'/a/f/ | c/=f/c/_A/ =F/c/A/F/) | %191
 z/ (C/_E/_A/ c/E/A/c/ | _e/_A/c/e/ _a/c/e/a/) | (!>![_D_d]2 .[=F=f]).[Ff] | %194
 .[_A_a].[Aa] [_d_d']2 | ([_e_e']2 .[ce=ac']).[ceac'] | .[Ac_ea].[Acea] [_E_e]2 | (!>!_d2 .=f).f | %198
 ._b.b _d'2 | (!>!_c'2 ._a).a | .=f.f !>!_c2 |!ff! (!>!_B2 ._d).d | ._g.g _b2 | (!>!_d'2 ._b).b | %204
 .=g.g =e2 | _e'2 .c'.c' | .=a.a.=f.f | ._e/(A,/_B,/C/ D/_E/=F/G/ | A/_B/c/d/ _e/=f/g/a/ | %209
 _b/c'/d'/_e'/ =f'/e'/d'/c'/ | _b/a/g/=f/ _e/d/c/_B/ | A/G/=F/_E/ D/C/[K:bass]_B,/A,/ | %212
 G,/=F,/_E,/D,/ C,/_B,,/A,,/G,,/ | =F,,/G,,/A,,/_B,,/ C,/D,/_E,/=F,/ | %214
 G,/A,/_B,/C/[K:treble] D/_E/=F/G/ | A/_B/c/d/ _e/=f/g/f/ | _e/d/c/_B/ A/_A/G/_G/) | (=E=F _B2 | %218
 ^cd =f2 | =f_e c2 | =f_e c2) | (^CD =F2 | A_B d2 | =f_e [_Ec]2 | [D_B]2) z2 | %225
 ([^C^c][Dd] !>![Gg]2) | ([^C^c][Dd] !>![Gg]2) | ([Gg][^F^f] !>![Dd]2) | ([Gg][^F^f] !>![Dd]2) | %229
 ([^C^c][Dd] !>![Gg]2) | ([^C^c][Dd] !>![Gg]2) | ([=F=f][_E_e]) z2 | %232
[Q:1/4=168]"^poco rit." ([Gg][=F=f]) z2 |[Q:1/4=174]"^a tempo" ([^C^c][Dd] [=F=f]2 | %234
 [Aa][_B_b] [dd']2) | ([=f=f'][_e_e'] [cc']2 | [=f=f'][_e_e'] [cc']2) | ([^C^c][Dd] [=F=f]2 | %238
 [Aa][_B_b] [dd']2) | (=f_e c2) | (=f_e c2) | (g=f d2) | (g_e c2) | (c'^f c2) | (c'g c2) | %245
 (c'a c2) | (c'a c2) |!f! z/ (c'/e'/d'/ c'/b/a/g/ | f/e/d/c/ B/A/G/F/ | %249
 E/D/C/B,/[I:staff +1] A,/G,/F,/E,/ | D,/C,/B,,/A,,/ G,,/F,,/E,,/D,,/ | %251
 ^C,,/D,,/E,,/F,,/ G,,/A,,/B,,/=C,/ | (3.D,).^D,.E, (3.=F,.^F,.G, | (3.^G,.A,.^A, (3.B,.C.^C | %254
[I:staff -1] (3.D.E.F (3.G.A.^A | (^AB [DBd]2 | fg [Bdb]2) | (d'c' [da]2 | d'c' [da]2) | %259
 (^AB [DBd]2 | fg [Bdb]2) | (d'c' [da]2 | [dg]2) z2 | ([^A^a][Bb] !>![ee']2 | %264
 [^A^a][Bb] !>![ee']2) | ([ee'][^d^d'] [Bb]2 | [ee'][^d^d'] [Bb]2) | ([^A^a][Bb] [ee']2 | %268
 [^A^a][Bb] [ee']2) | ([=d=d'][^c^c']) z2 |[Q:1/4=168]"^poco rit." ([ee'][dd']) z2 | %271
[Q:1/4=174]"^a tempo"!f! (^AB)(^cd) | (fg)(^ab) | (d'/c'/d'/c'/ !>!=a2) | (d'/c'/d'/c'/ !>!a2) | %275
 (^AB)(^cd) | (fg)(^ab) | (d'/c'/d'/c'/ .=a)(a/b/ | g2) z .d | (d'/c'/d'/c'/ a2) | %280
 (c'/b/c'/b/ g2) | (b/a/b/a/ f2) | (a/g/a/g/ e2) | (g/=f/g/f/ =d2) | (=f/e/f/e/ c2) | %285
 (e/d/e/d/ B2) | (d/c/d/c/ A2) | (c/B/A/G/ B/A/G/F/ | A/G/F/E/ G/F/E/D/ | F/E/D/C/ E/D/C/B,/ | %290
 D/C/B,/A,/ C/B,/A,/G,/) |[K:bass]!f! (^D,/^D/F,/D/ C/D/D,/D/ | E,/E/G,/E/ ^C/E/E,/E/) | %293
 z/ (B,/^C/^D/[K:treble] E/F/^G/^A/ | B/^c/^d/e/ f/^g/^a/b/) | (^G,/^G/B,/G/ =F/G/G,/G/ | %296
 A,/A/=C/A/ ^F/A/A,/A/) | z/ (E/F/^G/ A/B/^c/^d/ | e/f/^g/a/ b/^c'/^d'/e'/) | %299
 (^C/^c/E/c/ _B/c/C/c/ | D/d/=F/d/ =B/d/D/d/ | D/d/=F/d/ B/d/D/d/ | _E/_e/G/e/ c/e/E/e/) | %303
 (C/c/_E/c/ A/c/C/c/ | C/c/_E/c/ A/c/C/c/ | C/c/_E/c/ A/c/C/c/ | _D/_d/=F/d/ _B/d/D/d/) | %307
 (_B,/_B/_D/B/ G/B/B,/B/ | _B,/_B/_D/B/ G/B/B,/B/) | z/!<(! (_B,/C/_D/ _E/=F/G/_A/ | %310
 _B/c/_d/_e/ =f/g/_a/!<)!_b/ |!ff! (c'2) ._a).a | ._e.e c2 | (_B,/C/=E/_B/ C/E/B/c/ | %314
 =E/_B/c/=e/ B/c/e/_b/ | (_a2) .=f).f | .c.c _A2 | (G,/C/_E/G/ C/E/G/c/ | _E/G/c/_e/ G/c/e/g/) | %319
 z/ (c'/=a/^f/ c/f/c/=A/ | ^F/c/A/F/ C/A/F/C/) | z/ (_b/g/d/ _B/g/d/B/ | G/_B/G/D/ _B,/G/D/B,/) | %323
 z/ (g/=e/^c/ G/e/c/G/ | =E/G/E/^C/ G,/E/C/G,/) | z/ (a/^f/d/ A/f/d/A/ | ^F/d/A/F/ D/A/F/D/) | %327
 z/ (=c'/a/f/ c/f/c/A/ | F/c/A/F/ C/A/F/C/) | z/ (c'/g/_e/ c/e/c/G/ | _E/c/G/E/ C/G/E/C/) | %331
 z/ (c'/g/=e/ c/e/c/G/ | =E/G/E/C/ G,/E/C/G,/) | z/ (c'/a/=f/ c/f/c/A/ | =F/c/A/F/ C/A/F/C/) | %335
 z/ c'/=b/a/ g/^f/e/d/ | c/B/A/G/ F/E/D/C/ |[I:staff +1] B,/A,/G,/F,/ E,/D,/C,/B,,/ | %338
[I:staff -1] z4 | z4 |[K:bass] (D,2 .F,).F, | A,2 z2 | (F,2 .A,).A, | C2 z2 | %344
[K:treble] (A,2 .C).C | ([C_E]2 [A,C]2 | [C_E]2 [A,C]2 | [C=E]2 G,2 | [B,=F]2 G,2) | %349
 ([D=F]2 [^G,B,]2 | [D=F]2 [^G,B,]2 | [D^F]2 A,2 | [^CG]2 A,2) | ([EG]2 [^A,^C]2 | [EG]2 [^A,^C]2 | %355
 [E^G]2 B,2 | [^DA]2 B,2) | ([EB]2 B,2 | [^DA]2 B,2 | [E^G]2 B,2 | [_E=A]2 _C2) | ([_E_B]2 _B,2 | %362
 [=D_A]2 _B,2 |!p! [_EG]2 _B,2 | [Gc]2 C2 | [Gd]2 D2 | [^Fc]2 C2 |!pp! [G_B]2 D2 | %368
[Q:1/4=168]"^calando" [Gc]2 C2 | [Gd]2[Q:1/4=163]"^163" C2 | [Fd]2 C2 | %371
[Q:1/4=174]"^a tempo" .[=B,DG=B])z.d z | .gz.b z | (c'/d'/c'/b/ a/b/a/g/ |f/g/f/e/ d/e/d/c/ | %375
 .[B,DGB])z.[DGBd] z | .[GBdg]z.[Bdgb] z | (c'/d'/c'/b/ a/b/c'/a/ | .[GBdg])z.[B,DG] z | %379
 .[Begb]z.[EGBe] z | .[Begb]z.[egbe'] z | (^d'/e'/d'/=c'/ .b) z | (^d'/e'/d'/=c'/ .b) z | %383
 .[Begb]z.[EGBe] z | .[Begb]z.[egbe'] z | (^c'/d'/c'/b/ a/g/f/e/ | d/e/d/^c/ .d) z | %387
 ([B,B]2 .[Dd]).[Dd] | .[Gg].[Gg] [Bb]2 | (d'/c'/d'/c'/ .a) z | (d'/c'/d'/c'/ .a) z | %391
 ([B,B]2 .[Dd]).[Dd] | .[Gg].[Gg] [Bb]2 | (d'/c'/d'/c'/ .a)(a/b/ | g2)!p! (G/A/B/c/ | %395
 d/c/B/A/ G/A/B/c/ | .d).d g2 | (!>!g2 f) z | z .=f.f.f | (e/d/c/B/ A/B/c/d/ | .e).e a2 | %401
 (!>!a2 g) z | z .g.g.g | (^f/e/^d/^c/ B/c/d/e/ | .f).f !tenuto!b2 | .^g.g !tenuto!e'2 | %406
 .e.e !tenuto!a2 | .f.f !tenuto!d'2 | .d.d !tenuto!g2 |!f! .e.e !tenuto!c'2 | .d.d !tenuto!b2 | %411
 .c.c !tenuto!a2 | .^c.c !tenuto!a2 | .[Bdb]!p! .D.G.G | .B.B d2 | (d/=c/d/c/ A) z | %416
 (d/c/d/c/ A) z | (G2 .B).B | .d.d .g.g | (g/f/g/f/ d2) | (g/f/g/f/ d2) | (d2 .[dg]).[dg] | %422
 .[gb].[gb] [bd']2 | (d'/c'/d'/c'/ [fa]2) | (d'/c'/d'/c'/ [fa]2) | [gb]2 z2 | [ac']2 z2 | %427
 [GB]2 z2 | [Ac]2 z2 |[K:bass] [G,B,]2 z2 | [A,C]2 z2 | [G,B,]2 z2 | [A,C]2 z2 |!pp! [G,B,]2 z2 | %434
[K:treble] (F/G/F/G/) z2 |[K:bass] [G,B,]2 z2 |[K:treble] (^c/d/c/d/) z2 |[K:bass] [G,B,]2 z2 | %438
[K:treble] (f/g/f/g/) z2 |!ff! z4 | .[GBdg]2 z2 | .[G,B,DG]2 z2 |] %442
V:2
 .[G,B,D].[G,B,D].[G,B,D].[G,B,D] | .[G,B,D].[G,B,D].[G,B,D].[G,B,D] | %2
 .[G,CDF].[G,CDF].[G,CDF].[G,CDF] | .[G,CDF].[G,CDF].[G,CDF].[G,CDF] | %4
 .[G,B,D].[G,B,D].[G,B,D].[G,B,D] | .[G,B,D].[G,B,D].[G,B,D].[G,B,D] | %6
 .[G,CDF].[G,CDF].[G,CDF].[G,CDF] | .[G,B,DG].[G,B,].[G,B,].[G,B,] | %8
 .[E,G,B,].[E,G,B,].[E,G,B,].[E,G,B,] | .[E,G,B,].[E,G,B,].[E,G,B,].[E,G,B,] | %10
 .[B,,F,A,B,].[B,,F,A,B,].[B,,F,A,B,].[B,,F,A,B,] | %11
 .[B,,F,A,B,].[B,,F,A,B,].[B,,F,A,B,].[B,,F,A,B,] | .[E,G,B,].[E,G,B,].[E,G,B,].[E,G,B,] | %13
 .[E,G,B,].[E,G,B,].[E,G,B,].[E,G,B,] | .[A,,E,G,A,].[A,,E,G,A,].[A,,E,G,A,].[A,,E,G,A,] | %15
 .[D,F,A,].[D,F,A,].[D,F,A,].[D,F,A,] | .[G,,B,,D,G,].[G,,B,,D,G,].[G,,B,,D,G,].[G,,B,,D,G,] | %17
 .[G,,B,,D,G,].[G,,B,,D,G,].[G,,B,,D,G,].[G,,B,,D,G,] | %18
 .[G,,C,D,F,].[G,,C,D,F,].[G,,C,D,F,].[G,,C,D,F,] | %19
 .[G,,C,D,F,].[G,,C,D,F,].[G,,C,D,F,].[G,,C,D,F,] | %20
 .[G,,B,,D,G,].[G,,B,,D,G,].[G,,B,,D,G,].[G,,B,,D,G,] | %21
 .[G,,B,,D,G,].[G,,B,,D,G,].[G,,B,,D,G,].[G,,B,,D,G,] | %22
 .[G,,C,D,F,].[G,,C,D,F,].[G,,C,D,F,].[G,,C,D,F,] | [G,,B,,D,G,]2 G,,2 || %24
 .[E,,G,,B,,E,].[E,,G,,B,,E,] z .[E,,E,] | .[B,,F,A,].[B,,F,A,] z .[B,,F,A,] | %26
 .[E,G,].[E,G,] z .[E,G,] | .B,,.B,, z .B,, | .E,,.E,, z .E,, | .[A,,,A,,].[A,,,A,,] z .A,, | %30
 D,2 [A,,E,G,]2 | [D,F,]2 z2 | .[G,B,D].[G,B,D].[G,B,D].[G,B,D] | %33
 .[G,B,D].[G,B,D].[G,B,D].[G,B,D] | .[G,CDF].[G,CDF].[G,CDF].[G,CDF] | %35
 .[G,CDF].[G,CDF].[G,CDF].[G,CDF] | .[G,B,D].[G,B,D].[G,B,D].[G,B,D] | %37
 .[G,B,D].[G,B,D].[G,B,D].[G,B,D] | .[G,CDF].[G,CDF].[G,CDF].[G,CDF] | %39
 .[G,B,DG].[G,B,].[G,B,].[G,B,] | .[E,G,B,].[E,G,B,].[E,G,B,].[E,G,B,] | %41
 .[E,G,B,].[E,G,B,].[E,G,B,].[E,G,B,] | .[B,,F,A,B,].[B,,F,A,B,].[B,,F,A,B,].[B,,F,A,B,] | %43
 .[B,,F,A,B,].[B,,F,A,B,].[B,,F,A,B,].[B,,F,A,B,] | .[E,G,B,].[E,G,B,].[E,G,B,].[E,G,B,] | %45
 .[E,G,B,].[E,G,B,].[E,G,B,].[E,G,B,] | .[A,,E,G,A,].[A,,E,G,A,].[A,,E,G,A,].[A,,E,G,A,] | %47
 .[D,F,A,].[D,F,A,].[D,F,A,].[D,F,A,] | .[G,,B,,D,G,].[G,,B,,D,G,].[G,,B,,D,G,].[G,,B,,D,G,] | %49
 .[G,,B,,D,G,].[G,,B,,D,G,].[G,,B,,D,G,].[G,,B,,D,G,] | %50
 .[G,,C,D,F,].[G,,C,D,F,].[G,,C,D,F,].[G,,C,D,F,] | %51
 .[G,,C,D,F,].[G,,C,D,F,].[G,,C,D,F,].[G,,C,D,F,] | %52
 .[G,,B,,D,G,].[G,,B,,D,G,].[G,,B,,D,G,].[G,,B,,D,G,] | %53
 .[G,,B,,D,G,].[G,,B,,D,G,].[G,,B,,D,G,].[G,,B,,D,G,] | %54
 .[G,,C,D,F,].[G,,C,D,F,].[G,,C,D,F,].[G,,C,D,F,] | [G,,B,,D,G,]2 G,,2 |: %56
[K:Bb] .[G,,B,,D,G,].[G,,B,,D,G,] z .[G,,B,,D,G,] | .[C,E,G,].[C,E,G,] z .[C,E,G,] | %58
 .[F,,A,,C,F,].[F,,A,,C,F,] z .[F,,A,,C,F,] | .[B,,D,F,].[B,,D,F,] z .[B,,D,F,] | %60
 .[D,,D,].[D,,D,] z .[D,,D,] | .[E,,E,].[E,,E,] z .[E,,E,] | .[F,,F,] z .F,, z |1 %63
 z/ (B,,/D,/C,/ B,,/C,/B,,/A,,/) :|2 z/ (B,,/D,/F,/ .B,) z |: [B,,B,]3 .[_A,,_A,] | %66
 [G,,G,]2 z .[G,,G,] | [C,C]2 z .[_B,,_B,] | [=A,,=A,]2 z .[A,,,A,,] | [D,,D,]3 .[=C,,=C,] | %70
 .[_B,,,_B,,].[B,,,B,,] z .[B,,,B,,] | [C,,C,]2 [D,,D,]2 |1 z/ (G,,,/B,,,/D,,/ .G,,) z :|2 %73
 [G,,,G,,]2 z/ (B,,,/C,,/D,,/ || (E,,2) .G,,).G,, | .B,,.B,, !>!E,2 | (E,/D,/E,/D,/ B,,2) | %77
 (E,/D,/E,/D,/ B,,2) | .[E,G,B,].[E,G,B,].[E,G,B,].[E,G,B,] | %79
 .[E,G,B,].[E,G,B,].[E,G,B,].[E,G,B,] | .[=E,G,B,].[E,G,B,].[E,G,B,].[E,G,B,] | %81
 .[^F,=A,D].[F,A,D].[F,A,D].[F,A,D] ||[K:G] .[G,B,D].[G,B,D].[G,B,D].[G,B,D] | %83
 .[G,B,D].[G,B,D].[G,B,D].[G,B,D] | .[G,CDF].[G,CDF].[G,CDF].[G,CDF] | %85
 .[G,CDF].[G,CDF].[G,CDF].[G,CDF] | .[G,B,D].[G,B,D].[G,B,D].[G,B,D] | %87
 .[G,B,D].[G,B,D].[G,B,D].[G,B,D] | .[G,CDF].[G,CDF].[G,CDF].[G,CDF] | %89
 .[G,B,DG].[G,B,].[G,B,].[G,B,] | .[E,G,B,].[E,G,B,].[E,G,B,].[E,G,B,] | %91
 .[E,G,B,].[E,G,B,].[E,G,B,].[E,G,B,] | .[B,,F,A,B,].[B,,F,A,B,].[B,,F,A,B,].[B,,F,A,B,] | %93
 .[B,,F,A,B,].[B,,F,A,B,].[B,,F,A,B,].[B,,F,A,B,] | .[E,G,B,].[E,G,B,].[E,G,B,].[E,G,B,] | %95
 .[E,G,B,].[E,G,B,].[E,G,B,].[E,G,B,] | .[A,,E,G,A,].[A,,E,G,A,].[A,,E,G,A,].[A,,E,G,A,] | %97
 .[D,F,A,].[D,F,A,].[D,F,A,].[D,F,A,] | .[G,,B,,D,G,].[G,,B,,D,G,].[G,,B,,D,G,].[G,,B,,D,G,] | %99
 .[G,,B,,D,G,].[G,,B,,D,G,].[G,,B,,D,G,].[G,,B,,D,G,] | %100
 .[G,,C,D,F,].[G,,C,D,F,].[G,,C,D,F,].[G,,C,D,F,] | %101
 .[G,,C,D,F,].[G,,C,D,F,].[G,,C,D,F,].[G,,C,D,F,] | %102
 .[G,,B,,D,G,].[G,,B,,D,G,].[G,,B,,D,G,].[G,,B,,D,G,] | %103
 .[G,,B,,D,G,].[G,,B,,D,G,].[G,,B,,D,G,].[G,,B,,D,G,] | %104
 .[G,,C,D,F,].[G,,C,D,F,].[G,,C,D,F,].[G,,C,D,F,] | [G,,B,,D,G,]2 G,,2 |:[K:E]!ped! z (E,,G,,B,, | %107
 E,G,B,)!ped-up![K:treble] ([EG] | .[FA]).[EG].[DF].[CE] |[K:bass] .[B,D].[A,C].[G,B,].[F,A,] | %110
!ped! z (E,,G,,B,, | E,G,B,)(E!ped-up! | .D).E.D.[F,C] | .[B,,B,].F, .B,, :: z | %115
 z[K:treble] .B.A.G | .F.E.D.B, |[K:bass] .E.A,.G,.F, | .G,.A,.G,.E, | .B,, z[K:treble] .A.G | %120
 .F.E.D.B, |[K:bass] .E.A,.B,.B,, | .E,.B,,.E,, :| z |!ped! z (E,,G,,B,, | E,G,B,)(=D!ped-up! | %126
 .=C).=D.C.G, | .A,.G,.A,.=C | .B,.=C.B,.F, ||[K:G]!ped! (G,,/B,/D,/B,/ G,/B,/D,/B,/) | %130
 G,,/B,/D,/B,/ G,/B,/D,/B,/!ped-up! |!ped! G,,/C/D,/C/ F,/C/D,/C/!ped-up! | %132
!ped! G,,/C/D,/C/ F,/C/D,/C/!ped-up! |!ped! G,,/B,/D,/B,/ G,/B,/D,/B,/ | %134
 G,,/B,/D,/B,/ G,/B,/D,/B,/!ped-up! |!ped! G,,/C/D,/C/ F,/C/D,/C/!ped-up! | %136
!ped! (G,,/B,/D,/B,/ .G,,) z!ped-up! | (E,/E/B,/E/ F,/E/B,/E/ | G,/E/B,/E/ E,/E/B,/E/) | %139
 (B,,/B,/A,/B,/ ^D,/B,/A,/B,/ | F,/B,/A,/B,/ ^D,/B,/A,/B,/) | (E,/E/B,/E/ F,/E/B,/E/ | %142
 G,/E/B,/E/ E,/E/B,/E/) | (A,,/A,/E,/A,/ G,/A,/E,/A,/ | (D,/)E,/F,/G,/ A,/B,/=C/A,/) | %145
!ped! (G,,/B,/D,/B,/ G,/B,/D,/B,/) | G,,/B,/D,/B,/ G,/B,/D,/B,/!ped-up! | %147
!ped! G,,/C/D,/C/ F,/C/D,/C/!ped-up! |!ped! G,,/C/D,/C/ F,/C/D,/C/!ped-up! | %149
!ped! G,,/B,/D,/B,/ G,/B,/D,/B,/ | G,,/B,/D,/B,/ G,/B,/D,/B,/!ped-up! | %151
!ped! G,,/C/D,/C/ F,/C/D,/C/!ped-up! |!ped! (G,,/B,/D,/B,/ .G,,)!ped-up! z | F,2 (^C/D/C/D/ | %154
 G,2) (^C/D/C/D/ | A,2) (^C/D/C/D/ | B,2) (^C/D/C/D/ | F,2) (_E/D/E/D/ | G,2) (_E/D/E/D/ | %159
 =E,2) (G,/_B,/G,/B,/ | _E,2) (G,/_B,/G,/B,/ | D,2) (A,/D/A,/D/ | D,2) (A,/D/A,/D/ | %163
 _E,2) (G,/_B,/G,/B,/ | _E,2) (G,/_B,/G,/B,/ | .[_A,C]).[A,C_E].[A,CE].[A,CE] | %166
 .[_A,C_E].[A,CE].[A,CE].[A,CE] | .[_A,_D_EG].[A,DEG].[A,DEG].[A,DEG] | %168
 .[_A,_D_EG].[A,DEG].[A,DEG].[A,DEG] | .[_A,C_E].[A,CE].[A,CE].[A,CE] | %170
 .[_A,C_E].[A,CE].[A,CE].[A,CE] | .[_A,_D_EG].[A,DEG].[A,DEG].[A,DEG] | %172
 .[_A,C_E_A]!<(! .G,.A,!<)!._B, | (C/_B,/_A,/G,/ =F,/G,/A,/B,/ | .C).C =F2 | (=F/=E/F/E/ C2) | %176
 (=F/E/F/E/ C2) | (C/_B,/_A,/G,/ =F,/G,/A,/B,/ | .C).C =F2 | !trill(!T=D4 | _E2 z2 | %181
 .[_A,C_E].[A,CE].[A,CE].[A,CE] | .[_A,C_E].[A,CE].[A,CE].[A,CE] | %183
 .[G,_B,_D_E].[G,B,DE].[G,B,DE].[G,B,DE] | .[G,_B,_D_E].[G,B,DE].[G,B,DE].[G,B,DE] | %185
!ped! (!>!_A,,2 .C,).C, | ._E,.E, _A,2!ped-up! |!ped! (!>!_B,2 .G,).G, | .=E,.E, _B,,2!ped-up! | %189
!ped! (!>!_A,,2 .C,).C, | .=F,.F, _A,2!ped-up! |!ped! (!>!_G,2 ._E,).E, | .C,.C, _G,,2!ped-up! | %193
!ped! z/ (=F,/_D,/_A,,/ =F,,/D,/A,,/F,,/ | _D,,/=F,,/D,,/_A,,,/ =F,,,/A,,,/D,,/F,,/)!ped-up! | %195
!ped! (=F,,,/=A,,,/C,,/=F,,/ A,,,/C,,/F,,/=A,,/!ped-up! | %196
!ped! C,,/=F,,/A,,/C,/ F,,/A,,/C,/=F,/)!ped-up! |!ped! (_B,,/=F,/_D,/B,,/ =F,,/D,/B,,/F,,/ | %198
 _D,,/_B,,/=F,,/D,,/ _B,,,/D,,/F,,/B,,/)!ped-up! | %199
!ped! (_D,,/=F,,/_A,,/_D,/ F,,/A,,/D,/=F,/!ped-up! |!ped! _A,,/_D,/=F,/_A,/ D,/F,/A,/_D/)!ped-up! | %201
!ped! (_G,/_D/_B,/G,/ _D,/B,/G,/D,/ | _B,,/_G,/_D,/B,,/ _G,,/B,,/D,/G,/)!ped-up! | %203
!ped! (!>!=E,,/=G,,/_B,,/_D,/ !>!G,,/B,,/D,/=E,/ | G,,/_B,,/_D,/=E,/ G,,/B,,/D,/E,/)!ped-up! | %205
!ped! z/ (=F,,/=A,,/C,/ F,,/A,,/C,/=F,/ | =F,,/A,,/C,/_E,/ F,,/A,,/C,/E,/!ped-up! | .=F,,2) z2 | %208
 z4 | z4 | z4 | z4 | z4 | z4 | z4 | z4 | z4 | z2 (=E,=F, | _B,2 E,=F, | A,2 =E,=F, | A,2 =E,=F,) | %221
 z2 (^C,D, | =F,2 =E,F,) | z2 (^G,A,) | z2 (A,_B,) | z2 ([^F,A,][G,_B,]) | z2 ([^F,A,][G,_B,]) | %227
 z2 ([^G,=B,][A,C]) | z2 ([^G,=B,][A,C]) | z2 ([^F,A,][=G,_B,]) | z2 ([^F,A,][G,_B,]) | %231
 z2 ([^F,A,][G,_B,]) | z2 ([^G,=B,][A,C]) | z2 (^C,D, | =F,2 A,_B,) | z2 (^G,A,) | z2 (^G,A,) | %237
 z2 (^C,D, | =F,2 A,_B,) | z2 (D_E) | z2 (^CD) | z2 (=E=F) | z2 (D_E) | z2 (=B,C) | z2 (B,C) | %245
 z2 (B,C) | z2 (B,C) | [D,^F,A,D]2 z2 | z4 | z4 | z4 | z4 | z4 | z4 | z4 | z2 F,G, | D,2 F,G, | %257
 z2 CD | z2 CD | B,2 F,G, | D,2 F,G, | z2 CD | B, .D,.B,,.G,, | z2[K:treble] ([^DF][EG]) | %264
 z2 ([^DF][EG]) | z2 ([^E^G][FA]) | z2 ([^E^G][FA]) | z2 ([^DF][=E=G]) | z2 ([^DF][EG]) | %269
 z2 ([^DF][EG]) | z2 ([^E^G][FA]) |[K:bass] (=G,/D/B,/G,/ D,/B,/G,/D,/ | %272
 B,,/G,/D,/B,,/ G,,/D,/B,,/G,,/ | F,,/A,,/D,,/F,,/ A,,/D,/F,/A,/ | F,/A,/D,/F,/ A,/D/C/A,/ | %275
 G,/D/B,/G,/ D,/B,/G,/D,/ | B,,/G,/D,/B,,/ G,,/D,/B,,/G,,/ | D,,/D,/F,/A,/ D,/C/F,/C/ | %278
 G,/B,/D/B,/ .G,) z |[K:treble] z2 (g/f/g/f/) | z2 (^d/e/d/e/) | z2 (e/^d/e/d/) | z2 (B/c/B/c/) | %283
 z2 (c/B/c/B/ | ^G2) (B/A/B/A/ | ^F2) (A/=G/A/G/ | E2) (G/F/G/F/ |[K:bass] .^D).E.^C.=D | %288
 .B,.=C.A,.B, | .G,.A,.F,.G, | .E,.F,.^D,.E, | ([A,,C,]4 | [^A,,^C,]4 | B,,2) z2 | z4 | ([D,=F,]4 | %296
 [^D,^F,]4 | [E,^G,]2) z2 | z4 | [=G,_B,]4 | ([_A,=B,-]4 | [G,B,]4) | [C,C]4 | [=F,A,]4 | %304
 [_G,A,]4 | [=F,A,]4 | [_B,,_B,]4 | [_E,G,]4 | [_F,G,]4 | [_E,G,]2 z2 | z4 | %311
!ped! (_A,,,/C,,/_E,,/_A,,/ C,,/E,,/A,,/C,/ | _E,,/_A,,/C,/_E,/ A,,/C,/E,/_A,/!ped-up! | %313
!ped! (G,2) .=E,).E, | .C,.C, G,,2!ped-up! |!ped! (=F,,,/_A,,,/C,,/=F,,/ A,,,/C,,/F,,/_A,,/ | %316
 C,,/=F,,/_A,,/C,/ F,,/A,,/C,/=F,/!ped-up! |!ped! (_E,2) .C,).C, | .G,,.G,, _E,,2!ped-up! | %319
!ped! (D,,2 .^F,,).F,, | .=A,,.A,, D,2!ped-up! |!ped! (D,,2 .G,,).G,, | ._B,,.B,, D,2!ped-up! | %323
!ped! (D,,2 .G,,).G,, | ._B,,.B,, D,2!ped-up! |!ped! D,,2 z2 | z4!ped-up! |!ped! (D,,2 .^F,,).F,, | %328
 .A,,.A,, D,2!ped-up! |!ped! (_E,,2 .G,,).G,, | .C,.C, _E,2!ped-up! |!ped! (=E,,2 .G,,).G,, | %332
 .C,.C, =E,2!ped-up! |!ped! (=F,,2 .A,,).A,, | .C,.C, =F,2!ped-up! | [^F,,A,,C,D,]2 z2 | z4 | z4 | %338
 A,,/G,,/F,,/E,,/ D,,/^C,,/D,,/C,,/ | D,,2 .F,,.F,, | A,,2 z2 | (F,,2 .A,,).A,, | C,2 z2 | %343
 (A,,2 .C,).C, | _E,2 z2 | (F,,2 .[C,_E,]).[C,E,] | (F,,2 .[C,_E,]).[C,E,] | %347
 (G,,2 .[C,=E,]).[C,E,] | (G,,2 .[D,=F,]).[D,F,] | (^G,,2 .[D,=F,]).[D,F,] | %350
 (^G,,2 .[D,=F,]).[D,F,] | (A,,2 .[D,F,]).[D,F,] | (A,,2 .[E,G,]).[E,G,] | (^A,,2 .[E,G,]).[E,G,] | %354
 (^A,,2 .[E,G,]).[E,G,] | (B,,2 .[E,^G,]).[E,G,] | (B,,2 .[F,A,]).[F,A,] | (B,,2 .^G,).G, | %358
 (B,,2 .[F,A,]).[F,A,] | (B,,2 .[E,^G,]).[E,G,] | (_C,2 .[_G,=A,]).[G,A,] | %361
 (_B,,2 .[_E,=G,]).[E,G,] | (_B,,2 .[=F,_A,]).[F,A,] | (_E,2 .G,).G, | (_E,2 .G,).G, | %365
 (D,2 .[G,=A,]).[G,A,] | (D,2 .[^F,A,]).[F,A,] | (G,2 ._B,).B, | (_E,2 .[G,A,]).[G,A,] | %369
 (D,2 .[G,A,]).[G,A,] | (D,2 .[F,A,]).[F,A,] |!ped! z .[G,,=B,,D,G,]z.[G,,B,,D,G,] | %372
 z .[G,,B,,D,G,]z.[G,,B,,D,G,]!ped-up! | z .[G,,C,D,F,]z.[G,,C,D,F,] | %374
 z .[G,,C,D,F,]z.[G,,C,D,F,] |!ped! z .[G,,B,,D,G,]z.[G,,B,,D,G,] | %376
 z .[G,,B,,D,G,]z.[G,,B,,D,G,]!ped-up! | z .[G,,C,D,F,]z.[G,,C,D,F,] | %378
 z .[G,,B,,D,G,]z.[G,,B,,D,G,] |!ped! z .[E,G,B,E]z.[E,G,B,E] | z .[E,G,B,E]z.[E,G,B,E]!ped-up! | %381
 z .[B,,F,A,B,]z.[B,,F,A,B,] | z .[B,,F,A,B,]z.[B,,F,A,B,] |!ped! z .[E,,G,,B,,E,]z.[E,,G,,B,,E,] | %384
 z .[E,,G,,B,,E,]z.[E,,G,,B,,E,]!ped-up! | z .[A,,^C,E,G,]z.[A,,C,E,G,] | z .[D,F,]z.[D,F,A,D] | %387
!ped! z/ (D/B,/G,/ D,/B,/G,/D,/ | B,,/G,/D,/B,,/ G,,/D,/B,,/G,,/)!ped-up! | %389
!ped! (D,,/F,,/A,,/D,/ F,,/A,,/D,/F,/ | A,,/D,/F,/A,/ D,/F,/A,/D/)!ped-up! | %391
!ped! z/ (D/B,/G,/ D,/B,/G,/D,/ | B,,/G,/D,/B,,/ G,,/D,/B,,/G,,/)!ped-up! | %393
!ped! (D,,/F,,/A,,/D,/ F,,/A,,/D,/F,/!ped-up! | G,,2) z2 | z4 | z4 | (A,/G,/F,/E,/ D,/E,/F,/G,/ | %398
 .A,).A, D2 | (!>!D2 C) z | z .C.C.C | (B,/A,/G,/^F,/ E,/F,/G,/A,/ | .B,).B, E2 | (!>!E2 ^D) z | %404
[K:treble] [^DFB]4 | [=DEB]4 |!>(! [^C=GA]4 | [=CDA]4!>)! | [G,B,G]4 |[K:bass] [C,G,C]4 | %410
 [D,G,B,]4 | [E,G,C]4 | [_E,G,^C]4 | .[D,G,B,D] z z2 | z4 | (D,2 .F,).F, | .A,.A, .C.C | %417
 (C/B,/C/B,/ G,2) | (C/B,/C/B,/ G,2) |[K:treble] (D2 .F).F | .A.A .c.c | (c/B/c/B/ G2) | %422
 (c/B/c/B/ G2) | (D2 .F).F | .A.A c2 | z2 (F/G/F/G/) | z2 (G/F/G/F/) |[K:bass] z2 (F,/G,/F,/G,/) | %428
 z2 (G,/F,/G,/F,/) | z2 (F,,/G,,/F,,/G,,/) | z2 (G,,/F,,/G,,/F,,/) | z2 (F,,/G,,/F,,/G,,/) | %432
 z2 (F,,/G,,/F,,/G,,/) | z2 (F,,/G,,/F,,/G,,/) | z2 (F,,/G,,/F,,/G,,/) | z2 (F,,/G,,/F,,/G,,/) | %436
 z2 (F,,/G,,/F,,/G,,/) | z2 (F,,/G,,/F,,/G,,/) | z2 (F,,/G,,/F,,/G,,/) | .G,,,2 z2 | %440
 .[G,,B,,D,G,]2 z2 | .[G,,,B,,,D,,G,,]2 z2 |] %442
V:3
 x4 | x4 | x4 | x4 | x4 | x4 | x4 | x4 | x4 | x4 | x4 | x4 | x4 | x4 | %14
 x/3 (6:4:3x/ x/ x/ x/3 (6:4:1x/ (7:4:7x/ x/ x/ !trill)!x/ x/ b/^c'/ | x4 | x4 | x4 | x4 | x4 | %20
 x4 | x4 | x4 | x4 || x4 | x4 | x4 | x4 |[K:bass] x4 | x4 |[K:treble] x4 | x4 | x4 | x4 | x4 | x4 | %36
 x4 | x4 | x4 | x4 | x4 | x4 | x4 | x4 | x4 | x4 | %46
 x/3 (6:4:3!trill(!Tx/ x/ x/ x/3 (6:4:1x/ (7:4:7x/ x/ !trill)!x/ x/ x/ b/^c'/ | x4 | x4 | x4 | x4 | %51
 x4 | x4 | x4 | x4 | x4 |:[K:Bb] x4 | x4 | x4 | x4 | x4 | x4 | x4 |1 x4 :|2 x4 |: x4 | x4 | x4 | %68
 x4 | x4 | x4 | x4 |1 x4 :|2 x4 || x4 | x4 | x4 | x4 | x4 | x4 | x4 | x4 ||[K:G] x4 | x4 | x4 | %85
 x4 | x4 | x4 | x4 | x4 | x4 | x4 | x4 | x4 | x4 | x4 | %96
 x/3 (6:4:3x/ x/ x/ x/3 (6:4:1x/ (7:4:7x/ x/ x/ !trill)!x/ x/ b/^c'/ | x4 | x4 | x4 | x4 | x4 | %102
 x4 | x4 | x4 | x4 |:[K:E] x4 | x4 | x4 | x4 | x4 | x4 | x4 | x3 :: x | x4 | x4 | x4 | x4 | x4 | %120
 x4 | x4 | x3 :| x | x4 | x4 | x4 | x4 | x4 ||[K:G] x4 | x4 | x4 | x4 | x4 | x4 | x4 | x4 | x4 | %138
 x4 | x4 | x4 | x4 | x4 | x/3 (6:4:3x/ x/ x/ x/3 (6:4:1x/ (7:4:7x/ x/ !trill)!x/ x/ x/ b/^c'/ | %144
 x4 | x4 | x4 | x4 | x4 | x4 | x4 | x4 | x4 | x4 | x4 | x4 | x4 | x4 | x4 | x4 | x4 | x4 | x4 | %163
 x4 | x4 | x4 | x4 | x4 | x4 | x4 | x4 | x4 | x4 | x4 | x4 | x4 | x4 | x4 | x4 | x4 | x4 | x4 | %182
 x4 | x4 | x4 | x4 | x4 | x4 | x4 | x4 | x4 | x4 | x4 | x4 | x4 | x4 | x4 | x4 | x4 | x4 | x4 | %201
 x4 | x4 | x4 | x4 | x4 | x4 | x4 | x4 | x4 | x4 | x3[K:bass] x | x4 | x4 | x2[K:treble] x2 | x4 | %216
 x4 | x4 | x4 | x4 | x4 | x4 | x4 | x4 | x4 | x4 | x4 | x4 | x4 | x4 | x4 | x4 | x4 | x4 | x4 | %235
 x4 | x4 | x4 | x4 | =F4 | =F4 | G4 | G4 | x4 | x4 | x4 | x4 | x4 | x4 | x4 | x4 | x4 | x4 | x4 | %254
 x4 | x4 | x4 | x4 | x4 | x4 | x4 | x4 | x4 | x4 | x4 | x4 | x4 | x4 | x4 | x4 | x4 | x4 | x4 | %273
 x4 | x4 | x4 | x4 | x4 | x4 | x4 | x4 | x4 | x4 | x4 | x4 | x4 | x4 | x4 | x4 | x4 | x4 | %291
[K:bass] x4 | x4 | x2[K:treble] x2 | x4 | x4 | x4 | x4 | x4 | x4 | x4 | x4 | x4 | x4 | x4 | x4 | %306
 x4 | x4 | x4 | x4 | x4 | x4 | x4 | x4 | x4 | x4 | x4 | x4 | x4 | x4 | x4 | x4 | x4 | x4 | x4 | %325
 x4 | x4 | x4 | x4 | x4 | x4 | x4 | x4 | x4 | x4 | x4 | x4 | x4 | x4 | x4 |[K:bass] x4 | x4 | x4 | %343
 x4 |[K:treble] x4 | x4 | x4 | x4 | x4 | x4 | x4 | x4 | x4 | x4 | x4 | x4 | x4 | x4 | x4 | x4 | %360
 x4 | x4 | x4 | x4 | x4 | x4 | x4 | x4 | x4 | x4 | x4 | x4 | x4 | [df]z[df] z | [cd]zA z | x4 | %376
 x4 | [df]z[df] z | x4 | x4 | x4 | [fa]z[fa] z | [fa]z[fa] z | x4 | x4 | [eg] z z2 | x4 | x4 | x4 | %389
 x4 | x4 | x4 | x4 | x4 | x4 | x4 | x4 | x4 | x4 | x4 | x4 | x4 | x4 | x4 | x4 | e4 | x4 | d4 | %408
 x4 | c4 | B4 | A4 | A4 | x4 | x4 | x4 | x4 | x4 | x4 | x4 | x4 | x4 | x4 | x2 (_e/d/e/d/) | %424
 z2 _e/d/e/d/ | (=e/d/e/d/) x2 | (_e/d/e/d/) x2 | (=E/D/E/D/) x2 | (_E/D/E/D/) x2 | %429
[K:bass] (=E,/D,/E,/D,/) x2 | (_E,/D,/E,/D,/) x2 | (=E,/D,/E,/D,/) x2 | (_E,/D,/E,/D,/) x2 | %433
 (=E,/D,/E,/D,/) x2 |[K:treble] x4 |[K:bass] (E,/D,/E,/D,/) x2 |[K:treble] x4 | %437
[K:bass] (E,/D,/E,/D,/) x2 |[K:treble] x4 | x4 | x4 | x4 |] %442
V:4
 x4 | x4 | x4 | x4 | x4 | x4 | x4 | x4 | x4 | x4 | x4 | x4 | x4 | x4 | x4 | x4 | x4 | x4 | x4 | %19
 x4 | x4 | x4 | x4 | x4 || x4 | x4 | x4 | x4 | x4 | x4 | x4 | x4 | x4 | x4 | x4 | x4 | x4 | x4 | %38
 x4 | x4 | x4 | x4 | x4 | x4 | x4 | x4 | x4 | x4 | x4 | x4 | x4 | x4 | x4 | x4 | x4 | x4 |: %56
[K:Bb] x4 | x4 | x4 | x4 | x4 | x4 | x4 |1 x4 :|2 x4 |: x4 | x4 | x4 | x4 | x4 | x4 | x4 |1 x4 :|2 %73
 x4 || x4 | x4 | x4 | x4 | x4 | x4 | x4 | x4 ||[K:G] x4 | x4 | x4 | x4 | x4 | x4 | x4 | x4 | x4 | %91
 x4 | x4 | x4 | x4 | x4 | x4 | x4 | x4 | x4 | x4 | x4 | x4 | x4 | x4 | x4 |:[K:E] x4 | %107
 x3[K:treble] x | x4 |[K:bass] x4 | x4 | x4 | x4 | x3 :: x | x[K:treble] x3 | x4 |[K:bass] x4 | %118
 x4 | x2[K:treble] x2 | x4 |[K:bass] x4 | x3 :| x | x4 | x4 | x4 | x4 | x4 ||[K:G] x4 | x4 | x4 | %132
 x4 | x4 | x4 | x4 | x4 | x4 | x4 | x4 | x4 | x4 | x4 | x4 | x4 | x4 | x4 | x4 | x4 | x4 | x4 | %151
 x4 | x4 | x4 | x4 | x4 | x4 | x4 | x4 | x4 | x4 | x4 | x4 | x4 | x4 | x4 | x4 | x4 | x4 | x4 | %170
 x4 | x4 | x4 | x4 | x4 | x4 | x4 | x4 | x4 | %179
 x/3 (6:4:3x/ x/ x/ x/3 (6:4:1x/ (7:4:7x/ x/ x/ !trill)!x/ x/ C/D/ | x4 | x4 | x4 | x4 | x4 | x4 | %186
 x4 | x4 | x4 | x4 | x4 | x4 | x4 | x4 | x4 | x4 | x4 | x4 | x4 | x4 | x4 | x4 | x4 | x4 | x4 | %205
 x4 | x4 | x4 | x4 | x4 | x4 | x4 | x4 | x4 | x4 | x4 | x4 | _B,,4 | _B,,4 | _B,,4 | _B,,4 | %221
 _B,,4 | _B,,4 | _B,,4 | _B,,4 | x4 | x4 | x4 | x4 | x4 | x4 | x4 | x4 | _B,,4 | _B,,4 | _B,,4 | %236
 _B,,4 | _B,,4 | _B,,4 | A,4 | _B,4 | =B,4 | C4 | A,4 | G,4 | ^F,4 | =E,4 | x4 | x4 | x4 | x4 | %251
 x4 | x4 | x4 | x4 | x4 | x4 | (D,2 F,2 | D,2 F,2) | (G,2 x2 | x4 | D,2 F,2 | G,) x3 | %263
 x2[K:treble] x2 | x4 | x4 | x4 | x4 | x4 | x4 | x4 |[K:bass] x4 | x4 | x4 | x4 | x4 | x4 | x4 | %278
 x4 |[K:treble] x4 | x4 | x4 | x4 | x4 | x4 | x4 | x4 |[K:bass] x4 | x4 | x4 | x4 | x4 | x4 | x4 | %294
 x4 | x4 | x4 | x4 | x4 | x4 | x4 | x4 | x4 | x4 | x4 | x4 | x4 | x4 | x4 | x4 | x4 | x4 | x4 | %313
 x4 | x4 | x4 | x4 | x4 | x4 | x4 | x4 | x4 | x4 | x4 | x4 | x4 | x4 | x4 | x4 | x4 | x4 | x4 | %332
 x4 | x4 | x4 | x4 | x4 | x4 | x4 | x4 | x4 | x4 | x4 | x4 | x4 | x4 | x4 | x4 | x4 | x4 | x4 | %351
 x4 | x4 | x4 | x4 | x4 | x4 | x4 | x4 | x4 | x4 | x4 | x4 | x4 | x4 | x4 | x4 | x4 | x4 | x4 | %370
 x4 | x4 | x4 | x4 | x4 | x4 | x4 | x4 | x4 | x4 | x4 | x4 | x4 | x4 | x4 | x4 | x4 | x4 | x4 | %389
 x4 | x4 | x4 | x4 | x4 | x4 | x4 | x4 | x4 | x4 | x4 | x4 | x4 | x4 | x4 |[K:treble] x4 | x4 | %406
 x4 | x4 | x4 |[K:bass] x4 | x4 | x4 | x4 | x4 | x4 | x4 | x4 | x4 | x4 |[K:treble] x4 | x4 | x4 | %422
 x4 | x4 | x4 | G,4 | G,4 |[K:bass] G,,4 | G,,4 | G,,,4 | G,,,4 | G,,,4 | G,,,4 | G,,,4 | G,,,4 | %435
 G,,,4 | G,,,4 | G,,,4 | G,,,4 | x4 | x4 | x4 |] %442

